modules/hawcons-stroke/icons/icon-150-tag-checked.svg

<?xml version="1.0" encoding="UTF-8" standalone="no"?>
<svg width="32px" height="32px" viewBox="0 0 32 32" version="1.1" xmlns="http://www.w3.org/2000/svg" xmlns:xlink="http://www.w3.org/1999/xlink" xmlns:sketch="http://www.bohemiancoding.com/sketch/ns">
    <!-- Generator: Sketch 3.0.3 (7891) - http://www.bohemiancoding.com/sketch -->
    <title>icon 150 tag checked</title>
    <desc>Created with Sketch.</desc>
    <defs></defs>
    <g id="Page-1" stroke="none" stroke-width="1" fill="none" fill-rule="evenodd" sketch:type="MSPage">
        <g id="icon-150-tag-checked" sketch:type="MSArtboardGroup" fill="#929292">
            <path d="M6.7410124,16.7410124 L4,14 L4,5.99961498 C4,4.88743329 4.89525812,4 5.99961498,4 L14,4 L27.3809027,17.3809027 C28.1640508,18.1640508 28.168017,19.4319586 27.3884415,20.2115341 L20.2115341,27.3884415 C19.433119,28.1668566 18.1646418,28.1646418 17.3809027,27.3809027 L14.2589876,24.2589876 C13.3067391,25.8979838 11.5320645,27 9.5,27 C6.46243373,27 4,24.5375663 4,21.5 C4,19.4679355 5.10201625,17.6932609 6.7410124,16.7410124 L6.7410124,16.7410124 L6.7410124,16.7410124 Z M7.76440504,16.2794522 L5,13.5 L5,6.00844055 C5,5.45699692 5.45149422,5 6.00844055,5 L13.5,5 L26.6620109,18.0535183 C27.0531075,18.4413912 27.0550094,19.0704849 26.6678854,19.4602516 L19.5042948,26.672744 C19.1183535,27.0613199 18.488383,27.0618028 18.0998579,26.671163 L14.7110523,23.2639115 C14.8984126,22.710211 15,22.116969 15,21.5 C15,18.4624337 12.5375663,16 9.5,16 C8.89353564,16 8.3099972,16.0981575 7.76440504,16.2794522 L7.76440504,16.2794522 L7.76440504,16.2794522 Z M9.5,12 C10.8807119,12 12,10.8807119 12,9.5 C12,8.11928806 10.8807119,7 9.5,7 C8.11928806,7 7,8.11928806 7,9.5 C7,10.8807119 8.11928806,12 9.5,12 L9.5,12 Z M9.5,11 C10.3284272,11 11,10.3284272 11,9.5 C11,8.67157283 10.3284272,8 9.5,8 C8.67157283,8 8,8.67157283 8,9.5 C8,10.3284272 8.67157283,11 9.5,11 L9.5,11 Z M9.5,26 C11.9852815,26 14,23.9852815 14,21.5 C14,19.0147185 11.9852815,17 9.5,17 C7.0147185,17 5,19.0147185 5,21.5 C5,23.9852815 7.0147185,26 9.5,26 L9.5,26 Z M9,24.2426407 L6.64644661,21.8890873 L7.37867966,21.1568542 L9,22.7781746 L12.1213203,19.6568542 L12.8535534,20.3890873 L9,24.2426407 L9,24.2426407 Z" id="tag-checked" sketch:type="MSShapeGroup"></path>
        </g>
    </g>
</svg>

<svg width="32" height="32" xmlns="http://www.w3.org/2000/svg"><path d="M6.741 16.741L4 14V6c0-1.113.895-2 2-2h8l13.38 13.38c.784.784.788 2.052.008 2.832l-7.176 7.176a2.003 2.003 0 0 1-2.831-.007l-3.122-3.122a5.5 5.5 0 1 1-7.518-7.518zm1.023-.462L5 13.5V6.008C5 5.457 5.451 5 6.008 5H13.5l13.162 13.054a.994.994 0 0 1 .006 1.406l-7.164 7.213a.99.99 0 0 1-1.404-.002l-3.389-3.407a5.5 5.5 0 0 0-6.947-6.984zM9.5 12a2.5 2.5 0 1 0 0-5 2.5 2.5 0 0 0 0 5zm0-1a1.5 1.5 0 1 0 0-3 1.5 1.5 0 0 0 0 3zm0 15a4.5 4.5 0 1 0 0-9 4.5 4.5 0 0 0 0 9zM9 24.243l-2.354-2.354.733-.732L9 22.778l3.121-3.121.733.732L9 24.243z" fill="#929292" fill-rule="evenodd"/></svg>
